X:1
T:Title
%%score { ( 1 4 ) | ( 2 3 ) }
L:1/8
Q:1/4=100
M:4/4
K:Ab
V:1 treble nm="Grand Piano"
V:4 treble 
V:2 bass 
V:3 bass 
V:1
 [CE]2 [CE]>[CE] [DF]2 [FA][FB] | [Ec]2 [DB]2 [CA]4 | A2 A>A [=EG]2 [Ec][EB] | A2 [FB]2 [=Ec]4 | %4
w: J.~E.~Delmarter * * * * *||||
 [Ed]2 [Ec]>[DB] [A,CA]2 [A,E][CEA] | [DEB]4 [CEA]4 | [FA]2 [FA]>[FA] [FA]2 [EG][DF] | %7
w: |||
 [CE]2 [CA]2 [Ec]4 | A2 A>A [=DA]2 [DF][DB] | B2 c2 d4 | [Ec]2 [CA]>[CA] G2 FG | B4 [CA]4 | %12
w: |||||
 [CA]2 .[CE]2 [Ec]2 .[CA]2 | E2 F>G [CA]4 | [DB]2 .[DE]2 [Ec]2 .[CEA]2 | %15
w: |||
 [B,=DA]2 [B,DG]>[A,DF] [G,E]4 | [A,CE]2 [A,EA]2 [Ec]2 [EB]2 | [EA]2 [EB]>[_Gc] [Fd]4 | %18
w: |||
 c2 AA G2 B2 | A2- [DA-]2 [CA]4 |] %20
w: ||
V:2
 [A,,A,]2 [A,,A,]>[A,,A,] [D,A,]2 [D,A,][D,A,] | [E,A,]2 [E,G,]2 [A,,A,]4 | %2
 [F,A,C]2 [F,A,C]>[F,CF] [C,C]2 [C,G,][C,G,] | [F,F]2 [D,F,]2 [C,G,]4 | %4
 [B,,G,]2 [C,A,]>[D,A,] E,2 C,A,, | E,4 A,,4 | [D,D]2 [D,D]>[D,D] [D,D]2 [D,A,][D,A,] | %7
 [A,,A,]2 [A,,A,]2 [A,,A,]4 | [F,A,F]2 [F,CF]>[F,CF] [B,,B,]2 [B,,B,][B,,A,] | %9
 [E,G,E]2 [E,A,E]2 [E,B,E]4 | [A,,A,]2 [A,,A,]>[A,,A,] [E,B,E]2 [E,B,D][E,B,D] | %11
 [E,G,D]4 [A,,A,]4 | [A,,E,]2 .[A,,A,]2 [A,,A,]2 .[A,,E,]2 | [E,G,D]2 [E,A,D]>[E,B,D] [A,,A,]4 | %14
 [E,G,]2 .[E,B,]2 [A,,A,]2 .A,,2 | z4 E,4 | A,,2 C,2 [E,A,]2 [D,A,]2 | %17
 [C,A,]2 [B,,G,]>[A,,A,] [D,A,]4 | [E,A,E]2 [E,A,C][E,A,C] [E,B,D]2 [E,G,D]2 | z2 F,2 E,4 |] %20
V:3
 x8 | x8 | x8 | x8 | x8 | x8 | x8 | x8 | x8 | x8 | x8 | x8 | x8 | x8 | x8 | B,,2 B,,>B,, z2 D2 | %16
 x8 | x8 | x8 | A,,8 |] %20
V:4
 x8 | x8 | x8 | x8 | x8 | x8 | x8 | x8 | x8 | x8 | x8 | x8 | x8 | x8 | x8 | x8 | x8 | x8 | x8 | %19
 [A,C]2 z2 z4 |] %20

